scalable/actions/document-print-preview.svg

<?xml version="1.0" encoding="UTF-8" standalone="no"?>
<svg
   xmlns:dc="http://purl.org/dc/elements/1.1/"
   xmlns:cc="http://creativecommons.org/ns#"
   xmlns:rdf="http://www.w3.org/1999/02/22-rdf-syntax-ns#"
   xmlns:svg="http://www.w3.org/2000/svg"
   xmlns="http://www.w3.org/2000/svg"
   xmlns:sodipodi="http://sodipodi.sourceforge.net/DTD/sodipodi-0.dtd"
   xmlns:inkscape="http://www.inkscape.org/namespaces/inkscape"
   height="24"
   version="1.1"
   viewBox="0 0 24 24"
   width="24"
   id="svg10"
   sodipodi:docname="document-print-preview.svg"
   inkscape:version="0.92.3 (2405546, 2018-03-11)"
   style="fill:#000000">
  <metadata
     id="metadata16">
    <rdf:RDF>
      <cc:Work
         rdf:about="">
        <dc:format>image/svg+xml</dc:format>
        <dc:type
           rdf:resource="http://purl.org/dc/dcmitype/StillImage" />
        <dc:title></dc:title>
      </cc:Work>
    </rdf:RDF>
  </metadata>
  <defs
     id="defs14" />
  <sodipodi:namedview
     pagecolor="#ffffff"
     bordercolor="#666666"
     borderopacity="1"
     objecttolerance="10"
     gridtolerance="10"
     guidetolerance="10"
     inkscape:pageopacity="0"
     inkscape:pageshadow="2"
     inkscape:window-width="1366"
     inkscape:window-height="690"
     id="namedview12"
     showgrid="false"
     inkscape:zoom="20.625"
     inkscape:cx="12"
     inkscape:cy="12"
     inkscape:window-x="0"
     inkscape:window-y="28"
     inkscape:window-maximized="1"
     inkscape:current-layer="g4524" />
  <g
     id="g4524"
     transform="translate(0,-24)">
    <g
       id="g4528"
       transform="matrix(0.5,0,0,0.5,-0.87758297,23.609677)">
      <path
         style="opacity:1;fill:#1a1a1a;fill-opacity:1;stroke:none;stroke-width:5.33300018;stroke-linecap:butt;stroke-linejoin:round;stroke-miterlimit:4;stroke-dasharray:none;stroke-dashoffset:0;stroke-opacity:1;paint-order:markers fill stroke"
         d="M 12.1875,2 C 12.083422,2 12,2.0834217 12,2.1875 v 7.625 C 12,9.9165783 12.083422,10 12.1875,10 h 23.625 C 35.916578,10 36,9.9165783 36,9.8125 V 2.1875 C 36,2.0834217 35.916578,2 35.8125,2 Z m -8,10.203125 C 4.083422,12.203125 4,12.286545 4,12.390625 V 29.8125 C 4,29.916578 4.08342,30 4.1875,30 h 8.027344 V 28.873047 H 30.386719 A 5.9690146,5.9387503 0 0 1 36.238281,24.097656 5.9690146,5.9387503 0 0 1 42.205078,30 h 1.742188 c 0.104078,0 0.1875,-0.08342 0.1875,-0.1875 V 12.390625 c 0,-0.104078 -0.08342,-0.1875 -0.1875,-0.1875 z M 42.205078,30 h -6.177734 v 5.964844 a 5.9690146,5.9387503 0 0 0 0.210937,0.0098 5.9690146,5.9387503 0 0 0 5.96875,-5.9375 A 5.9690146,5.9387503 0 0 0 42.205078,30 Z m -6.177734,5.964844 A 5.9690146,5.9387503 0 0 1 30.269531,30.037109 5.9690146,5.9387503 0 0 1 30.271484,30 h -18.05664 v 7.927734 h 23.8125 z M 30.271484,30 h 5.75586 V 28.873047 H 30.386719 A 5.9690146,5.9387503 0 0 0 30.271484,30 Z m 6.923828,-15.152344 a 2.7711864,2.7711864 0 0 1 2.771485,2.771485 2.7711864,2.7711864 0 0 1 -2.771485,2.771484 2.7711864,2.7711864 0 0 1 -2.771484,-2.771484 2.7711864,2.7711864 0 0 1 2.771484,-2.771485 z"
         id="rect812"
         inkscape:connector-curvature="0" />
      <rect
         style="opacity:1;fill:none;fill-opacity:1;stroke:#1a1a1a;stroke-width:3.03299999;stroke-linecap:square;stroke-linejoin:miter;stroke-miterlimit:1.5;stroke-dasharray:none;stroke-dashoffset:0;stroke-opacity:1;paint-order:markers fill stroke"
         id="rect880"
         width="0.20338982"
         height="12"
         x="16.864981"
         y="50.16399"
         transform="rotate(-29.543646)" />
    </g>
  </g>
</svg>

<?xml version="1.0" encoding="UTF-8" standalone="no"?>
<svg
   xmlns:dc="http://purl.org/dc/elements/1.1/"
   xmlns:cc="http://creativecommons.org/ns#"
   xmlns:rdf="http://www.w3.org/1999/02/22-rdf-syntax-ns#"
   xmlns:svg="http://www.w3.org/2000/svg"
   xmlns="http://www.w3.org/2000/svg"
   xmlns:sodipodi="http://sodipodi.sourceforge.net/DTD/sodipodi-0.dtd"
   xmlns:inkscape="http://www.inkscape.org/namespaces/inkscape"
   fill="#000000"
   height="48"
   version="1.1"
   viewBox="0 0 48 48"
   width="48"
   id="svg10"
   sodipodi:docname="document-print-preview.svg"
   inkscape:version="0.92.3 (2405546, 2018-03-11)">
  <metadata
     id="metadata16">
    <rdf:RDF>
      <cc:Work
         rdf:about="">
        <dc:format>image/svg+xml</dc:format>
        <dc:type
           rdf:resource="http://purl.org/dc/dcmitype/StillImage" />
        <dc:title />
      </cc:Work>
    </rdf:RDF>
  </metadata>
  <defs
     id="defs14" />
  <sodipodi:namedview
     pagecolor="#ffffff"
     bordercolor="#666666"
     borderopacity="1"
     objecttolerance="10"
     gridtolerance="10"
     guidetolerance="10"
     inkscape:pageopacity="0"
     inkscape:pageshadow="2"
     inkscape:window-width="1366"
     inkscape:window-height="690"
     id="namedview12"
     showgrid="false"
     inkscape:zoom="3.4766083"
     inkscape:cx="-33.259201"
     inkscape:cy="13.247432"
     inkscape:window-x="0"
     inkscape:window-y="28"
     inkscape:window-maximized="1"
     inkscape:current-layer="svg10" />
  <path
     style="opacity:1;fill:#1a1a1a;fill-opacity:1;stroke:none;stroke-width:5.33300018;stroke-linecap:butt;stroke-linejoin:round;stroke-miterlimit:4;stroke-dasharray:none;stroke-dashoffset:0;stroke-opacity:1;paint-order:markers fill stroke"
     d="M 4.1875 12.203125 C 4.083422 12.203125 4 12.286545 4 12.390625 L 4 29.8125 C 4 29.916578 4.08342 30 4.1875 30 L 12.214844 30 L 12.214844 28.873047 L 30.386719 28.873047 A 5.9690146 5.9387503 0 0 1 36.238281 24.097656 A 5.9690146 5.9387503 0 0 1 42.205078 30 L 43.947266 30 C 44.051344 30 44.134766 29.91658 44.134766 29.8125 L 44.134766 12.390625 C 44.134766 12.286547 44.051346 12.203125 43.947266 12.203125 L 4.1875 12.203125 z M 42.205078 30 L 36.027344 30 L 36.027344 35.964844 A 5.9690146 5.9387503 0 0 0 36.238281 35.974609 A 5.9690146 5.9387503 0 0 0 42.207031 30.037109 A 5.9690146 5.9387503 0 0 0 42.205078 30 z M 36.027344 35.964844 A 5.9690146 5.9387503 0 0 1 30.269531 30.037109 A 5.9690146 5.9387503 0 0 1 30.271484 30 L 12.214844 30 L 12.214844 37.927734 L 36.027344 37.927734 L 36.027344 35.964844 z M 30.271484 30 L 36.027344 30 L 36.027344 28.873047 L 30.386719 28.873047 A 5.9690146 5.9387503 0 0 0 30.271484 30 z M 37.195312 14.847656 A 2.7711864 2.7711864 0 0 1 39.966797 17.619141 A 2.7711864 2.7711864 0 0 1 37.195312 20.390625 A 2.7711864 2.7711864 0 0 1 34.423828 17.619141 A 2.7711864 2.7711864 0 0 1 37.195312 14.847656 z "
     id="rect812" />
  <rect
     style="opacity:1;fill:#1a1a1a;fill-opacity:1;stroke:none;stroke-width:5.33300018;stroke-linecap:butt;stroke-linejoin:round;stroke-miterlimit:4;stroke-dasharray:none;stroke-dashoffset:0;stroke-opacity:1;paint-order:markers fill stroke"
     id="rect822"
     width="24"
     height="8"
     x="12"
     y="2"
     ry="0.187867" />
  <rect
     style="opacity:1;fill:none;fill-opacity:1;stroke:#1a1a1a;stroke-width:3.03299999;stroke-linecap:square;stroke-linejoin:miter;stroke-miterlimit:1.5;stroke-dasharray:none;stroke-dashoffset:0;stroke-opacity:1;paint-order:markers fill stroke"
     id="rect880"
     width="0.20338982"
     height="12"
     x="16.864981"
     y="50.16399"
     transform="rotate(-29.543646)" />
</svg>
